packages/tokens/icons/question/size16Px.svg

<svg viewBox="0 0 16 16" fill="none" xmlns="http://www.w3.org/2000/svg" width="1em" height="1em"><circle cx="8.5" cy="8" r="6.5" stroke="currentColor" stroke-linecap="round"/><path d="M8.50058 9.5V8.98426C8.50641 8.8426 8.5239 8.72159 8.55306 8.62125C8.58221 8.5209 8.62303 8.42941 8.6755 8.34678C8.72798 8.25824 8.79212 8.1756 8.86792 8.09887C8.94373 8.02213 9.03119 7.9336 9.13031 7.83325C9.22944 7.73291 9.32565 7.63551 9.41894 7.54107C9.51224 7.44073 9.59387 7.33448 9.66384 7.22233C9.73381 7.10428 9.78921 6.97737 9.83002 6.84161C9.87667 6.70585 9.89999 6.54943 9.89999 6.37236C9.89999 6.19528 9.86501 6.0241 9.79504 5.85883C9.7309 5.69356 9.63469 5.54894 9.50641 5.42499C9.37813 5.29513 9.21778 5.19183 9.02536 5.1151C8.83877 5.03837 8.62594 5 8.38687 5C8.14781 5 7.94081 5.03542 7.76588 5.10625C7.59679 5.17118 7.45101 5.25381 7.32857 5.35416C7.21195 5.4486 7.11865 5.54894 7.04868 5.65519C6.98454 5.76144 6.93498 5.85293 6.89999 5.92966" stroke="currentColor" stroke-linecap="round" stroke-linejoin="round"/><rect x="8.75" y="11.75" width="0.5" height="0.5" rx="0.25" transform="rotate(180 8.75 11.75)" stroke="currentColor" stroke-width="0.5"/></svg>

<svg xmlns="http://www.w3.org/2000/svg" fill="none" viewBox="0 0 16 16" width="1em" height="1em"><circle cx="8.5" cy="8" r="6.5" stroke="currentColor" stroke-linecap="round"/><path stroke="currentColor" stroke-linecap="round" stroke-linejoin="round" d="M8.5 9.5v-.516c.006-.141.024-.262.053-.363a1.284 1.284 0 0 1 .315-.522l.262-.266.289-.292a2.1 2.1 0 0 0 .245-.319c.07-.118.125-.245.166-.38a1.442 1.442 0 0 0-.035-.983 1.2 1.2 0 0 0-.289-.434 1.388 1.388 0 0 0-.48-.31A1.667 1.667 0 0 0 8.385 5a1.65 1.65 0 0 0-1.057.354 1.34 1.34 0 0 0-.28.301 2.784 2.784 0 0 0-.149.275"/><rect width=".5" height=".5" x="8.75" y="11.75" stroke="currentColor" stroke-width=".5" rx=".25" transform="rotate(180 8.75 11.75)"/></svg>
